symbols/web/water_damage/materialsymbolsoutlined/water_damage_wght100gradN25fill1_48px.svg

<svg xmlns="http://www.w3.org/2000/svg" height="48" width="48"><path d="M12.6 37.4v-16h-1.8L24 9.5l13.2 11.9h-1.8v16ZM24 30.5q1.1 0 1.85-.7t.75-1.8q0-.7-.3-1.325t-1.55-2.425q-.15-.3-.375-.375Q24.15 23.8 24 23.8t-.375.075q-.225.075-.375.375-1.25 1.9-1.5 2.425-.25.525-.25 1.325 0 1.1.7 1.8t1.8.7Z"/></svg>

<svg xmlns="http://www.w3.org/2000/svg" height="48" width="48"><path d="M12.6 37.4V21.4H10.8L24 9.5L37.2 21.4H35.4V37.4ZM24 30.5Q25.1 30.5 25.85 29.8Q26.6 29.1 26.6 28Q26.6 27.3 26.3 26.675Q26 26.05 24.75 24.25Q24.6 23.95 24.375 23.875Q24.15 23.8 24 23.8Q23.85 23.8 23.625 23.875Q23.4 23.95 23.25 24.25Q22 26.15 21.75 26.675Q21.5 27.2 21.5 28Q21.5 29.1 22.2 29.8Q22.9 30.5 24 30.5Z"/></svg>
